Adwaita++/actions/symbolic/document-page-setup-symbolic.svg

<svg height="16" width="16" xmlns="http://www.w3.org/2000/svg">
  <g fill="#474747">
    <path d="m3 1a1 1 0 0 0 -1 1v2a1 1 0 1 0 2 0v-1h5.586l2.414 2.414v4.586a1 1 0 1 0 2 0v-5a1 1 0 0 0 -.293-.707l-3-3a1 1 0 0 0 -.707-.293zm0 13a1 1 0 1 0 0 2h10a1 1 0 1 0 0-2zm-1-8.266v7.266h12.11zm2 3.532 2.89 1.734h-2.89z" fill-rule="evenodd"/>
    <path d="m2 14h1v1h-1zm11 0h1v1h-1z"/>
  </g>
</svg>

<svg xmlns="http://www.w3.org/2000/svg" width="16" height="16">
    <g fill="#474747">
        <path d="M3 1a1 1 0 0 0-1 1v2a1 1 0 1 0 2 0V3h5.586L12 5.414V10a1 1 0 1 0 2 0V5a1 1 0 0 0-.293-.707l-3-3A1 1 0 0 0 10 1zm0 13a1 1 0 1 0 0 2h10a1 1 0 1 0 0-2zM2 5.734V13h12.11zm2 3.532L6.89 11H4z" style="line-height:normal;font-variant-ligatures:normal;font-variant-position:normal;font-variant-caps:normal;font-variant-numeric:normal;font-variant-alternates:normal;font-feature-settings:normal;text-indent:0;text-align:start;text-decoration-line:none;text-decoration-style:solid;text-decoration-color:#000;text-transform:none;text-orientation:mixed;shape-padding:0;isolation:auto;mix-blend-mode:normal" color="#000" font-weight="400" font-family="sans-serif" white-space="normal" overflow="visible" fill-rule="evenodd"/>
        <path d="M2 14h1v1H2zM13 14h1v1h-1z"/>
    </g>
</svg>
